icons/048/yalp.svg

<?xml version="1.0" encoding="UTF-8" standalone="no"?>
<svg
   xmlns:dc="http://purl.org/dc/elements/1.1/"
   xmlns:cc="http://creativecommons.org/ns#"
   xmlns:rdf="http://www.w3.org/1999/02/22-rdf-syntax-ns#"
   xmlns:svg="http://www.w3.org/2000/svg"
   xmlns="http://www.w3.org/2000/svg"
   width="48"
   height="48"
   viewBox="0 0 48 48"
   version="1.1"
   id="svg5059">
  <metadata
     id="metadata5065">
    <rdf:RDF>
      <cc:Work
         rdf:about="">
        <dc:format>image/svg+xml</dc:format>
        <dc:type
           rdf:resource="http://purl.org/dc/dcmitype/StillImage" />
        <dc:title></dc:title>
      </cc:Work>
    </rdf:RDF>
  </metadata>
  <defs
     id="defs5063" />
  <path
     id="path4601"
     d="M 24 2 A 22 22 0 0 0 2 24 A 22 22 0 0 0 24 46 A 22 22 0 0 0 46 24 A 22 22 0 0 0 24 2 z M 33.435547 9.1796875 A 1.6631909 1.4981156 0 0 1 34.173828 9.3164062 L 20.757812 22.119141 L 16.828125 17.611328 L 19.84375 16.041016 L 32.654297 9.3808594 A 1.6631909 1.4981156 0 0 1 33.435547 9.1796875 z M 34.800781 9.765625 A 1.6631909 1.4981156 0 0 1 35.146484 10.677734 L 35.146484 24.003906 L 35.146484 37.322266 A 1.6631909 1.4981156 0 0 1 34.798828 38.238281 L 22.396484 24.001953 L 34.800781 9.765625 z M 13.759766 19.207031 L 18.787109 24.001953 L 13.761719 28.796875 L 7.0332031 25.298828 A 1.6631909 1.4981156 0 0 1 7.0332031 22.705078 L 13.759766 19.207031 z M 20.757812 25.884766 L 34.171875 38.683594 A 1.6631909 1.4981156 0 0 1 32.654297 38.623047 L 19.84375 31.958984 L 16.830078 30.392578 L 20.757812 25.884766 z "
     style="fill:#ffffff" />
</svg>

<svg xmlns="http://www.w3.org/2000/svg" width="48" height="48" viewBox="0 0 48 48">
    <path d="M24 2A22 22 0 0 0 2 24a22 22 0 0 0 22 22 22 22 0 0 0 22-22A22 22 0 0 0 24 2zm9.436 7.18a1.663 1.498 0 0 1 .738.136L20.758 22.12l-3.93-4.51 3.016-1.57 12.81-6.66a1.663 1.498 0 0 1 .782-.2zm1.365.586a1.663 1.498 0 0 1 .346.912v26.644a1.663 1.498 0 0 1-.347.916L22.395 24.002 34.8 9.766zm-21.04 9.44l5.027 4.796-5.025 4.795-6.73-3.498a1.663 1.498 0 0 1 0-2.595l6.728-3.498zm6.998 6.68l13.414 12.798a1.663 1.498 0 0 1-1.518-.06l-12.81-6.665-3.014-1.567 3.928-4.508z" fill="#fff"/>
</svg>
